icons/square/48/google-earth.svg

<?xml version="1.0" encoding="UTF-8" standalone="no"?>
<svg
   xmlns:dc="http://purl.org/dc/elements/1.1/"
   xmlns:cc="http://creativecommons.org/ns#"
   xmlns:rdf="http://www.w3.org/1999/02/22-rdf-syntax-ns#"
   xmlns:svg="http://www.w3.org/2000/svg"
   xmlns="http://www.w3.org/2000/svg"
   xmlns:xlink="http://www.w3.org/1999/xlink"
   xmlns:sodipodi="http://sodipodi.sourceforge.net/DTD/sodipodi-0.dtd"
   xmlns:inkscape="http://www.inkscape.org/namespaces/inkscape"
   viewBox="0 0 48 48"
   id="svg2"
   version="1.1"
   inkscape:version="0.48.4 r9939"
   width="100%"
   height="100%"
   sodipodi:docname="google-earth.svg">
  <metadata
     id="metadata65">
    <rdf:RDF>
      <cc:Work
         rdf:about="">
        <dc:format>image/svg+xml</dc:format>
        <dc:type
           rdf:resource="http://purl.org/dc/dcmitype/StillImage" />
      </cc:Work>
    </rdf:RDF>
  </metadata>
  <sodipodi:namedview
     pagecolor="#ffffff"
     bordercolor="#666666"
     borderopacity="1"
     objecttolerance="10"
     gridtolerance="10"
     guidetolerance="10"
     inkscape:pageopacity="0"
     inkscape:pageshadow="2"
     inkscape:window-width="640"
     inkscape:window-height="480"
     id="namedview63"
     showgrid="false"
     inkscape:zoom="4.9166667"
     inkscape:cx="19.091437"
     inkscape:cy="19.180115"
     inkscape:window-x="0"
     inkscape:window-y="0"
     inkscape:window-maximized="0"
     inkscape:current-layer="svg2" />
  <defs
     id="defs4">
    <linearGradient
       id="linearGradient3764"
       x1="1"
       x2="47"
       gradientUnits="userSpaceOnUse"
       gradientTransform="translate(-47.997785,0.00221467)">
      <stop
         stop-color="#3593c3"
         stop-opacity="1"
         id="stop7" />
      <stop
         offset="1"
         stop-color="#419ccc"
         stop-opacity="1"
         id="stop9" />
    </linearGradient>
    <clipPath
       id="clipPath-305067453">
      <g
         transform="translate(0,-1004.3622)"
         id="g12">
        <rect
           rx="4"
           y="1005.36"
           x="1"
           height="46"
           width="46"
           fill="#1890d0"
           id="rect14" />
      </g>
    </clipPath>
    <clipPath
       id="clipPath-317287480">
      <g
         transform="translate(0,-1004.3622)"
         id="g17">
        <rect
           rx="4"
           y="1005.36"
           x="1"
           height="46"
           width="46"
           fill="#1890d0"
           id="rect19" />
      </g>
    </clipPath>
    <linearGradient
       inkscape:collect="always"
       xlink:href="#linearGradient3764"
       id="linearGradient3070"
       gradientUnits="userSpaceOnUse"
       gradientTransform="translate(-47.997785,0.00221467)"
       x1="1"
       x2="47" />
    <linearGradient
       inkscape:collect="always"
       xlink:href="#linearGradient3764"
       id="linearGradient3073"
       gradientUnits="userSpaceOnUse"
       gradientTransform="translate(-47.997785,0.00221467)"
       x1="1"
       x2="47" />
    <linearGradient
       inkscape:collect="always"
       xlink:href="#linearGradient3764"
       id="linearGradient3076"
       gradientUnits="userSpaceOnUse"
       gradientTransform="translate(-47.997785,0.00221467)"
       x1="1"
       x2="47" />
    <linearGradient
       inkscape:collect="always"
       xlink:href="#linearGradient3764"
       id="linearGradient3079"
       gradientUnits="userSpaceOnUse"
       gradientTransform="translate(-47.997785,0.00221467)"
       x1="1"
       x2="47" />
  </defs>
  <g
     id="g21">
    <g
       transform="translate(0,-1004.3622)"
       id="g23">
      <path
         d="m 5 1006.36 c -2.216 0 -4 1.784 -4 4 l 0 37.25 c 0 2.216 1.784 4 4 4 l 38 0 c 2.216 0 4 -1.784 4 -4 l 0 -37.25 c 0 -2.216 -1.784 -4 -4 -4 l -38 0 z m -4 41.5 0 0.5 c 0 2.216 1.784 4 4 4 l 38 0 c 2.216 0 4 -1.784 4 -4 l 0 -0.5 c 0 2.216 -1.784 4 -4 4 l -38 0 c -2.216 0 -4 -1.784 -4 -4 z"
         opacity="0.02"
         id="path25" />
      <path
         d="m 1 1047.61 0 0.25 c 0 2.216 1.784 4 4 4 l 38 0 c 2.216 0 4 -1.784 4 -4 l 0 -0.25 c 0 2.216 -1.784 4 -4 4 l -38 0 c -2.216 0 -4 -1.784 -4 -4 z"
         opacity="0.05"
         id="path27" />
      <rect
         width="46"
         height="46"
         x="1"
         y="1005.61"
         rx="4"
         opacity="0.1"
         id="rect29" />
    </g>
  </g>
  <g
     id="g31">
    <rect
       width="46"
       height="46"
       x="-46.998"
       y="1"
       rx="4"
       transform="matrix(0,-1,1,0,0,0)"
       fill="url(#linearGradient3764)"
       fill-opacity="1"
       id="rect33" />
  </g>
  <g
     id="g35" />
  <path
     style="opacity:0.1;fill:#000000;fill-opacity:1;fill-rule:evenodd;stroke:none"
     d="M 7.96875 1 C 5.0605264 2.8151652 2.6153377 5.5318173 1 7.75 L 1 12.03125 C 3.218197 10.072104 5.5179533 9.03125 8.46875 9.03125 C 15.673124 9.03125 16.602519 12.230272 29.8125 20.84375 C 34.451852 23.871195 40.783106 27.703297 47 29.96875 L 47 25.5 C 46.780552 25.362221 46.565522 25.2405 46.34375 25.09375 C 45.924549 24.812812 45.499352 24.534989 45.0625 24.21875 C 41.592692 21.71384 37.740337 18.168526 32.71875 13.75 C 29.895938 11.279769 23.91486 4.4262711 18.90625 1 L 7.96875 1 z M 37.125 1 C 37.643179 1.3692527 38.188867 1.7725477 38.71875 2.1875 C 43.121417 5.6476601 43.969065 9.7524089 47 13.1875 L 47 5 C 47 2.784 45.216 1 43 1 L 37.125 1 z M 3.78125 32.78125 L 3.78125 32.8125 C 2.6824136 32.8125 1.7261487 33.089977 1 33.65625 L 1 39.03125 C 2.9759747 42.137012 5.5118104 44.824433 8.46875 47 L 13.3125 47 C 13.295131 46.821765 13.28125 46.621912 13.28125 46.4375 C 13.28125 44.713628 14.398647 44.03125 15.65625 44.03125 C 17.322758 44.03125 22.84596 46.65625 32.0625 46.65625 C 36.676653 46.65625 42.412397 45.99591 46.625 44.375 C 46.677543 44.323714 46.729099 44.270424 46.78125 44.21875 C 46.904435 43.832965 47 43.427688 47 43 L 47 40.3125 C 44.321812 41.034405 40.863002 41.625 36.84375 41.625 C 24.311845 41.625 12.891464 36.280489 9.59375 34.5625 C 8.7141633 34.107998 6.4641368 32.78125 3.78125 32.78125 z "
     id="path45" />
  <path
     style="fill:#f9f9f9;fill-opacity:1;fill-rule:evenodd;stroke:none"
     d="M 5.90625 1 C 3.8926727 2.643999 2.2179281 4.6087903 1 6.28125 L 1 10.5625 C 3.2189576 8.6019547 5.5168681 7.5625 8.46875 7.5625 C 15.673124 7.5625 16.602519 10.761522 29.8125 19.375 C 34.451852 22.402445 40.783106 26.234547 47 28.5 L 47 24.03125 C 46.780552 23.893471 46.565522 23.77175 46.34375 23.625 C 45.924549 23.344062 45.499352 23.066239 45.0625 22.75 C 41.592692 20.24509 37.740337 16.668526 32.71875 12.25 C 30.25759 10.09625 25.398486 4.6408744 20.875 1 L 5.90625 1 z M 39.09375 1 C 43.162296 4.3931458 44.060467 8.3872491 47 11.71875 L 47 5 C 47 2.784 45.216 1 43 1 L 39.09375 1 z M 3.78125 31.3125 L 3.78125 31.34375 C 2.6824136 31.34375 1.7261487 31.621227 1 32.1875 L 1 37.5625 C 3.4534647 41.418763 6.7740197 44.63061 10.6875 47 L 13.65625 47 C 13.437119 46.382528 13.28125 45.695549 13.28125 44.96875 C 13.28125 43.244877 14.398647 42.5625 15.65625 42.5625 C 17.322758 42.5625 22.84596 45.1875 32.0625 45.1875 C 36.676653 45.1875 42.412397 44.52716 46.625 42.90625 C 46.751103 42.783163 46.87616 42.65656 47 42.53125 L 47 38.84375 C 44.321812 39.565655 40.863002 40.15625 36.84375 40.15625 C 24.311845 40.15625 12.891464 34.811738 9.59375 33.09375 C 8.7141633 32.639247 6.4641368 31.3125 3.78125 31.3125 z "
     id="path55" />
  <g
     id="g57">
    <g
       transform="translate(0,-1004.3622)"
       id="g59">
      <path
         d="m 1 1043.36 0 4 c 0 2.216 1.784 4 4 4 l 38 0 c 2.216 0 4 -1.784 4 -4 l 0 -4 c 0 2.216 -1.784 4 -4 4 l -38 0 c -2.216 0 -4 -1.784 -4 -4 z"
         opacity="0.1"
         id="path61" />
    </g>
  </g>
</svg>

<svg xmlns="http://www.w3.org/2000/svg" viewBox="0 0 48 48">
  <defs>
    <linearGradient id="a" x1="1" x2="47" gradientUnits="userSpaceOnUse" gradientTransform="translate(-47.998 .002)">
      <stop stop-color="#3593c3"/>
      <stop offset="1" stop-color="#419ccc"/>
    </linearGradient>
  </defs>
  <g transform="translate(0 -1004.362)">
    <path d="M5 1006.36c-2.216 0-4 1.784-4 4v37.25c0 2.216 1.784 4 4 4h38c2.216 0 4-1.784 4-4v-37.25c0-2.216-1.784-4-4-4H5zm-4 41.5v.5c0 2.216 1.784 4 4 4h38c2.216 0 4-1.784 4-4v-.5c0 2.216-1.784 4-4 4H5c-2.216 0-4-1.784-4-4z" opacity=".02"/>
    <path d="M1 1047.61v.25c0 2.216 1.784 4 4 4h38c2.216 0 4-1.784 4-4v-.25c0 2.216-1.784 4-4 4H5c-2.216 0-4-1.784-4-4z" opacity=".05"/>
    <rect width="46" height="46" x="1" y="1005.61" rx="4" opacity=".1"/>
  </g>
  <rect width="46" height="46" x="-46.998" y="1" rx="4" transform="rotate(-90)" fill="url(#a)"/>
  <path d="M7.969 1C5.06 2.815 2.615 5.532 1 7.75v4.281c2.218-1.959 4.518-3 7.469-3 7.204 0 8.134 3.2 21.343 11.813 4.64 3.027 10.971 6.86 17.188 9.125V25.5c-.22-.138-.434-.26-.656-.406-.42-.281-.845-.559-1.282-.875-3.47-2.505-7.322-6.05-12.343-10.469C29.896 11.28 23.915 4.426 18.906 1H7.97zm29.156 0c.518.37 1.064.773 1.594 1.188 4.402 3.46 5.25 7.564 8.281 11V5c0-2.216-1.784-4-4-4h-5.875zM3.781 32.781v.032c-1.099 0-2.055.277-2.781.843v5.375A29.666 29.666 0 0 0 8.469 47h4.844a5.985 5.985 0 0 1-.032-.563c0-1.723 1.118-2.406 2.375-2.406 1.667 0 7.19 2.625 16.407 2.625 4.614 0 10.35-.66 14.562-2.281.053-.051.104-.105.156-.156.123-.386.219-.791.219-1.219v-2.688c-2.678.722-6.137 1.313-10.156 1.313-12.532 0-23.953-5.345-27.25-7.063-.88-.454-3.13-1.78-5.813-1.78z" opacity=".1" fill-rule="evenodd"/>
  <path d="M5.906 1C3.893 2.644 2.218 4.609 1 6.281v4.282c2.219-1.961 4.517-3 7.469-3 7.204 0 8.134 3.199 21.343 11.812 4.64 3.027 10.971 6.86 17.188 9.125v-4.469c-.22-.138-.434-.26-.656-.406-.42-.28-.845-.559-1.282-.875-3.47-2.505-7.322-6.081-12.343-10.5-2.461-2.154-7.32-7.61-11.844-11.25H5.906zm33.188 0C43.162 4.393 44.06 8.387 47 11.719V5c0-2.216-1.784-4-4-4h-3.906zM3.78 31.313v.03c-1.099 0-2.055.278-2.781.845v5.374C3.453 41.42 6.774 44.632 10.688 47h2.968a6.084 6.084 0 0 1-.375-2.031c0-1.724 1.118-2.407 2.375-2.407 1.667 0 7.19 2.626 16.407 2.626 4.614 0 10.35-.66 14.562-2.282.126-.123.251-.25.375-.375v-3.687c-2.678.722-6.137 1.312-10.156 1.312-12.532 0-23.953-5.344-27.25-7.062-.88-.455-3.13-1.782-5.813-1.782z" fill="#f9f9f9" fill-rule="evenodd"/>
  <path d="M1 38.998v4c0 2.216 1.784 4 4 4h38c2.216 0 4-1.784 4-4v-4c0 2.216-1.784 4-4 4H5c-2.216 0-4-1.784-4-4z" opacity=".1"/>
</svg>
